X:352
T:Flowing Bowl - Adderbury
M:4/4
L:1/8
K:G
BA | G2 D2 B,2 D2 | G2 G2 G2 G2 | A2 A2 A2 A2 | B4 G2 :|
z2 | B3 B B2 d2 | d2 c2 c4 | A3 A A2 c2 | c2 B2 B4 |
B3 B B2 d2 | d2 c2 e3 d | B2 G2 A2 F2 | G4 G2 ||
